X:1
T:Paddy's Green Shamrock Shore
M:3/4
L:1/4
K:C
 C| G- A _B| G2- C| G- E- G| F- E C| _B,- A, B,| C2 C| C3-| C2 A| A- G F|\
 G2 c| c2 _B| G2 _B/2B/2| _B A G| F- C D| B,3-| B,2 A| A- G F| G2 A/2_B/2|\
 c2 _B| G2 c/2c/2| _B A G| F- C D| _B,3-| _B,2 C| G- A _B| G2 C| G- E G|\
 F- E C| _B, A, B,| C2 C| C3-| C2||
